icons/1_Primary/Mailchimp.svg

<svg width="1024" height="1024" viewBox="0 0 1024 1024" fill="none" xmlns="http://www.w3.org/2000/svg">
<g clip-path="url(#clip0_2_2733)">
<path d="M512 1024C794.77 1024 1024 794.77 1024 512C1024 229.23 794.77 0 512 0C229.23 0 0 229.23 0 512C0 794.77 229.23 1024 512 1024Z" fill="#F9DE81"/>
<path d="M633.71 497.91C637.236 497.461 640.804 497.461 644.33 497.91C646.23 493.53 646.55 485.98 644.84 477.77C642.27 465.56 638.84 458.17 631.74 459.32C624.64 460.47 624.34 469.32 626.91 481.53C628.34 488.39 630.91 494.27 633.73 497.9L633.71 497.91ZM572.58 507.57C577.69 509.81 580.81 511.29 582.03 510.01C582.82 509.2 582.59 507.66 581.39 505.67C578.87 501.54 573.69 497.38 568.2 495.05C562.508 492.687 556.304 491.832 550.185 492.566C544.067 493.3 538.241 495.598 533.27 499.24C529.85 501.74 526.64 505.24 527.07 507.32C527.24 508 527.73 508.52 528.93 508.69C531.75 509.01 541.56 504.05 552.87 503.35C560.87 502.86 567.49 505.35 572.58 507.6V507.57ZM562.32 513.43C555.69 514.5 552.04 516.68 549.69 518.71C547.69 520.46 546.44 522.41 546.44 523.78L546.95 525L548.04 525.43C549.714 525.179 551.35 524.719 552.91 524.06C559.726 521.488 567.091 520.723 574.29 521.84C577.6 522.22 579.21 522.44 579.91 521.28C580.1 520.948 580.186 520.566 580.156 520.184C580.126 519.802 579.981 519.438 579.74 519.14C578.18 516.62 571.47 512.36 562.34 513.45L562.32 513.43ZM613.09 534.93C617.58 537.15 622.54 536.28 624.16 533.01C625.78 529.74 623.43 525.23 618.92 523.01C614.41 520.79 609.47 521.66 607.85 524.93C606.23 528.2 608.57 532.73 613.08 534.93H613.09ZM642.09 509.58C638.43 509.52 635.38 513.58 635.31 518.58C635.24 523.58 638.11 527.73 641.77 527.79C645.43 527.85 648.48 523.79 648.57 518.79C648.66 513.79 645.7 509.67 642 509.58H642.09ZM396.19 600.27C395.29 599.14 393.8 599.48 392.34 599.82C391.224 600.119 390.075 600.277 388.92 600.29C387.7 600.317 386.493 600.043 385.404 599.491C384.316 598.94 383.38 598.129 382.68 597.13C381.01 594.56 381.12 590.74 382.94 586.36L383.8 584.36C386.75 577.78 391.67 566.73 386.15 556.21C382 548.3 375.23 543.34 367.08 542.32C363.228 541.828 359.315 542.26 355.664 543.58C352.012 544.9 348.727 547.07 346.08 549.91C337.98 558.84 336.72 571.03 338.3 575.35C338.88 576.91 339.77 577.35 340.42 577.44C341.81 577.63 343.84 576.63 345.12 573.16L345.48 572.05C346.254 569.279 347.383 566.621 348.84 564.14C350.97 560.873 354.311 558.587 358.127 557.782C361.943 556.978 365.922 557.721 369.19 559.85C371.952 561.675 374.001 564.395 374.994 567.552C375.986 570.71 375.861 574.113 374.64 577.19C373.38 580.63 371.35 587.19 371.8 592.58C372.72 603.52 379.43 607.91 385.44 608.4C391.3 608.61 395.44 605.3 396.44 602.89C396.679 602.476 396.788 601.999 396.75 601.522C396.713 601.046 396.531 600.591 396.23 600.22L396.19 600.27ZM734.45 580.27C734.24 579.48 732.78 574.16 730.77 567.74L726.71 556.84C734.71 544.84 734.85 534.05 733.81 527.98C732.66 520.43 729.53 513.98 723.21 507.37C716.89 500.76 703.97 493.9 685.8 488.82L676.29 486.17C676.29 485.79 675.8 463.66 675.37 454.17C675.09 447.33 674.49 436.6 671.18 426.06C667.18 411.76 660.34 399.28 651.73 391.28C675.46 366.66 690.27 339.51 690.23 316.28C690.17 271.5 635.23 257.93 567.62 286.01L553.3 292.1C544.546 283.487 535.783 274.887 527.01 266.3C449.85 198.88 208.71 467.4 285.79 532.63L302.65 546.91C298.091 559.139 296.481 572.272 297.95 585.24C299.77 603.24 309 620.38 323.95 633.68C338.16 646.29 356.87 654.31 375.01 654.29C405 723.5 473.55 766 553.92 768.39C640.15 770.96 712.52 730.39 742.92 657.62C744.92 652.49 753.31 629.47 753.31 609.16C753.31 588.85 741.74 580.27 734.41 580.27H734.45ZM381.65 634.77C379.008 635.221 376.329 635.416 373.65 635.35C347.65 634.64 319.49 611.17 316.65 583.35C313.55 552.57 329.26 528.89 357.05 523.29C360.896 522.521 364.823 522.232 368.74 522.43C384.32 523.29 407.28 535.26 412.52 569.26C417.16 599.36 409.78 630.03 381.61 634.84L381.65 634.77ZM352.58 504.77C335.27 508.13 320 517.96 310.68 531.53C305.1 526.87 294.68 517.85 292.87 514.34C277.97 486.02 309.12 430.93 330.87 399.83C384.67 322.97 468.87 264.83 507.87 275.34C514.2 277.14 535.19 301.5 535.19 301.5C535.19 301.5 496.19 323.15 460.08 353.36C411.39 391 374.6 445.56 352.56 504.81L352.58 504.77ZM625.91 623.27C626.198 623.14 626.438 622.924 626.599 622.652C626.76 622.38 626.834 622.065 626.81 621.75C626.791 621.563 626.736 621.381 626.646 621.215C626.557 621.05 626.436 620.903 626.29 620.784C626.145 620.665 625.977 620.576 625.796 620.522C625.616 620.468 625.427 620.451 625.24 620.47C625.24 620.47 584.46 626.47 545.92 612.37C550.11 598.71 561.27 603.65 578.15 605.02C604.375 606.576 630.675 603.73 655.96 596.6C673.4 591.6 696.32 581.68 714.14 567.6C717.968 576.481 720.695 585.797 722.26 595.34C725.197 594.907 728.196 595.455 730.79 596.9C734.45 599.17 737.14 603.9 735.3 616.03C731.56 638.75 721.92 657.2 705.72 674.17C695.599 685.136 683.549 694.15 670.17 700.76C662.736 704.687 654.986 707.982 647 710.61C585.91 730.61 523.37 708.61 503.21 661.45C501.57 657.841 500.212 654.109 499.15 650.29C490.58 619.19 497.87 581.89 520.67 558.4C522.06 556.9 523.49 555.13 523.49 552.93C523.49 551.07 522.31 549.13 521.31 547.74C513.31 536.15 485.7 516.4 491.26 478.19C495.26 450.72 519.26 431.4 541.56 432.55L547.22 432.87C556.9 433.45 565.35 434.69 573.34 435.03C586.68 435.61 598.67 433.66 612.88 421.8C617.67 417.8 621.52 414.32 628.01 413.23C629.892 412.741 631.839 412.552 633.78 412.67C637.253 412.802 640.625 413.881 643.53 415.79C654.92 423.38 656.53 441.79 657.12 455.23C657.46 462.93 658.38 481.48 658.7 486.82C659.43 499 662.61 500.71 669.09 502.82C672.72 504.04 676.09 504.94 681.09 506.33C696.16 510.58 705.09 514.88 710.74 520.42C713.66 523.27 715.561 527.002 716.15 531.04C717.95 544.04 706.15 560.04 674.73 574.67C640.42 590.62 598.85 594.67 570.1 591.45L560 590.33C537 587.23 523.9 616.98 537.68 637.33C546.57 650.48 570.81 659.03 595.03 659.03C650.61 659.03 693.31 635.28 709.19 614.74L710.47 612.92C711.24 611.74 710.6 611.1 709.61 611.77C696.61 620.66 638.99 655.99 577.3 645.35C572.426 644.51 567.639 643.224 563 641.51C557.57 639.39 546.2 634.16 544.83 622.51C594.59 637.92 625.91 623.34 625.91 623.34V623.27ZM451.88 399.61C471.01 377.47 494.54 358.23 515.62 347.43C515.777 347.35 515.956 347.321 516.131 347.35C516.305 347.378 516.466 347.461 516.59 347.587C516.714 347.713 516.794 347.876 516.819 348.051C516.844 348.226 516.813 348.404 516.73 348.56C515.04 351.56 511.81 358.11 510.81 363.03C510.771 363.196 510.783 363.37 510.844 363.529C510.906 363.688 511.013 363.825 511.154 363.922C511.294 364.019 511.46 364.072 511.631 364.073C511.801 364.075 511.968 364.025 512.11 363.93C525.23 354.93 548.04 345.38 568.11 344.16C568.298 344.15 568.484 344.2 568.642 344.304C568.799 344.407 568.919 344.559 568.984 344.735C569.049 344.912 569.056 345.105 569.003 345.286C568.95 345.467 568.84 345.626 568.69 345.74C565.386 348.286 562.431 351.255 559.9 354.57C559.807 354.696 559.75 354.845 559.736 355C559.721 355.156 559.749 355.313 559.817 355.454C559.885 355.595 559.99 355.715 560.121 355.8C560.252 355.886 560.403 355.934 560.56 355.94C574.56 356.05 594.42 360.94 607.33 368.23C608.19 368.72 607.59 370.41 606.6 370.23C587.06 365.74 555.09 362.32 521.87 370.44C492.22 377.69 469.59 388.87 453.09 400.9C452.915 401.019 452.704 401.071 452.494 401.047C452.285 401.023 452.091 400.924 451.948 400.769C451.805 400.614 451.722 400.412 451.715 400.202C451.708 399.991 451.777 399.784 451.91 399.62L451.88 399.61Z" fill="white"/>
</g>
<defs>
<clipPath id="clip0_2_2733">
<rect width="1024" height="1024" fill="white"/>
</clipPath>
</defs>
</svg>

<svg xmlns="http://www.w3.org/2000/svg" viewBox="0 0 1024 1024">
   <circle cx="512" cy="512" r="512" style="fill:#ffe01b"/>
   <path d="M633.71 497.91a42.07 42.07 0 0 1 10.62 0c1.9-4.38 2.22-11.93.51-20.14-2.57-12.21-6-19.6-13.1-18.45s-7.4 10-4.83 22.21c1.43 6.86 4 12.74 6.82 16.37Zm-61.13 9.66c5.11 2.24 8.23 3.72 9.45 2.44.79-.81.56-2.35-.64-4.34-2.52-4.13-7.7-8.29-13.19-10.62a35.85 35.85 0 0 0-34.93 4.19c-3.42 2.5-6.63 6-6.2 8.08.17.68.66 1.2 1.86 1.37 2.82.32 12.63-4.64 23.94-5.34 8-.49 14.62 2 19.71 4.25Zm-10.26 5.86c-6.63 1.07-10.28 3.25-12.63 5.28-2 1.75-3.25 3.7-3.25 5.07l.51 1.22 1.09.43a20.24 20.24 0 0 0 4.87-1.37 42.22 42.22 0 0 1 21.38-2.22c3.31.38 4.92.6 5.62-.56a1.9 1.9 0 0 0-.17-2.14c-1.56-2.52-8.27-6.78-17.4-5.69Zm50.77 21.5c4.49 2.22 9.45 1.35 11.07-1.92s-.73-7.78-5.24-10-9.45-1.35-11.07 1.92.72 7.8 5.23 10Zm29-25.35c-3.66-.06-6.71 4-6.78 9s2.8 9.15 6.46 9.21 6.71-4 6.8-9-2.87-9.12-6.57-9.21Zm-245.9 90.69c-.9-1.13-2.39-.79-3.85-.45a13.81 13.81 0 0 1-3.42.47 7.42 7.42 0 0 1-6.24-3.16c-1.67-2.57-1.56-6.39.26-10.77l.86-2c2.95-6.58 7.87-17.63 2.35-28.15-4.15-7.91-10.92-12.87-19.07-13.89a24.47 24.47 0 0 0-21 7.59c-8.1 8.93-9.36 21.12-7.78 25.44.58 1.56 1.47 2 2.12 2.09 1.39.19 3.42-.81 4.7-4.28l.36-1.11a33.35 33.35 0 0 1 3.36-7.91 14.71 14.71 0 0 1 20.35-4.29 14.41 14.41 0 0 1 5.45 17.34c-1.26 3.44-3.29 10-2.84 15.39.92 10.94 7.63 15.33 13.64 15.82 5.86.21 10-3.1 11-5.51a2.36 2.36 0 0 0-.21-2.67Zm338.26-20c-.21-.79-1.67-6.11-3.68-12.53l-4.06-10.9c8-12 8.14-22.79 7.1-28.86-1.15-7.55-4.28-14-10.6-20.61s-19.24-13.47-37.41-18.55l-9.51-2.65c0-.38-.49-22.51-.92-32-.28-6.84-.88-17.57-4.19-28.11-4-14.3-10.84-26.78-19.45-34.78 23.73-24.62 38.54-51.77 38.5-75-.06-44.78-55-58.35-122.61-30.27l-14.32 6.09q-13.13-12.92-26.29-25.8c-77.16-67.42-318.3 201.1-241.22 266.33l16.86 14.28a83 83 0 0 0-4.7 38.33c1.82 18 11.05 35.14 26 48.44 14.21 12.61 32.92 20.63 51.06 20.61C405 723.5 473.55 766 553.92 768.39c86.23 2.57 158.6-38 189-110.77 2-5.13 10.39-28.15 10.39-48.46s-11.57-28.89-18.9-28.89Zm-352.8 54.5a41.47 41.47 0 0 1-8 .58c-26-.71-54.16-24.18-57-52-3.1-30.78 12.61-54.46 40.4-60.06a47.45 47.45 0 0 1 11.69-.86c15.58.86 38.54 12.83 43.78 46.83 4.64 30.1-2.74 60.77-30.91 65.58Zm-29.07-130c-17.31 3.36-32.58 13.19-41.9 26.76-5.58-4.66-16-13.68-17.81-17.19-14.9-28.32 16.25-83.41 38-114.51 53.8-76.86 138-135 177-124.49 6.33 1.8 27.32 26.16 27.32 26.16s-39 21.65-75.11 51.86c-48.69 37.64-85.48 92.2-107.52 151.45Zm273.33 118.5a1.54 1.54 0 0 0 .9-1.52 1.43 1.43 0 0 0-1.57-1.28s-40.78 6-79.32-8.1c4.19-13.66 15.35-8.72 32.23-7.35a235.34 235.34 0 0 0 77.81-8.42c17.44-5 40.36-14.92 58.18-29a118.55 118.55 0 0 1 8.12 27.74 13.49 13.49 0 0 1 8.53 1.56c3.66 2.27 6.35 7 4.51 19.13-3.74 22.72-13.38 41.17-29.58 58.14a121.79 121.79 0 0 1-35.55 26.59 150 150 0 0 1-23.17 9.85c-61.09 20-123.63-2-143.79-49.16a76.57 76.57 0 0 1-4.06-11.16c-8.57-31.1-1.28-68.4 21.52-91.89 1.39-1.5 2.82-3.27 2.82-5.47 0-1.86-1.18-3.8-2.18-5.19-8-11.59-35.61-31.34-30.05-69.55 4-27.47 28-46.79 50.3-45.64l5.66.32c9.68.58 18.13 1.82 26.12 2.16 13.34.58 25.33-1.37 39.54-13.23 4.79-4 8.64-7.48 15.13-8.57a18.5 18.5 0 0 1 5.77-.56 19.07 19.07 0 0 1 9.75 3.12c11.39 7.59 13 26 13.59 39.44.34 7.7 1.26 26.25 1.58 31.59.73 12.18 3.91 13.89 10.39 16 3.63 1.22 7 2.12 12 3.51 15.07 4.25 24 8.55 29.65 14.09a18.59 18.59 0 0 1 5.41 10.62c1.8 13-10 29-41.42 43.63-34.31 15.95-75.88 20-104.63 16.78l-10.1-1.12c-23-3.1-36.1 26.65-22.32 47 8.89 13.15 33.13 21.7 57.35 21.7 55.58 0 98.28-23.75 114.16-44.29l1.28-1.82c.77-1.18.13-1.82-.86-1.15-13 8.89-70.62 44.22-132.31 33.58a80.94 80.94 0 0 1-14.3-3.84c-5.43-2.12-16.8-7.35-18.17-19 49.76 15.41 81.08.83 81.08.83ZM547.08 614Zm-95.2-214.39c19.13-22.14 42.66-41.38 63.74-52.18a.83.83 0 0 1 1.11 1.13c-1.69 3-4.92 9.55-5.92 14.47a.85.85 0 0 0 1.3.9c13.12-9 35.93-18.55 56-19.77a.88.88 0 0 1 .58 1.58 47.71 47.71 0 0 0-8.79 8.83.86.86 0 0 0 .66 1.37c14 .11 33.86 5 46.77 12.29.86.49.26 2.18-.73 2-19.54-4.49-51.51-7.91-84.73.21-29.65 7.25-52.28 18.43-68.78 30.46a.88.88 0 0 1-1.18-1.28Z" style="fill:#fff"/>
</svg>
